packages/foundations/assets/icons/functional/images/communication/speech_bubble_exclamation_mark_32.svg

<svg width="32" height="32" viewBox="0 0 32 32" fill="none" xmlns="http://www.w3.org/2000/svg">
<g clip-path="url(#clip0_185_486)">
<path fill-rule="evenodd" clip-rule="evenodd" d="M27 2.5C28.5625 2.5 30 3.6562 30 5.5V20.5C30 22.0625 28.8773 23.5 27 23.5H9.84375C9.5625 23.5 9.35922 23.5457 9.125 23.7812L3.71875 29.2188C3.53179 29.4068 3.25 29.5 3 29.5C2.53125 29.5 2 29.1257 2 28.5V5.5C2 3.9375 3.25382 2.5 5 2.5H27ZM27 4.5H5C4.53125 4.5 4 4.75 4 5.5V26.0938L7.6875 22.375C8.2945 21.7629 8.92904 21.5 9.84375 21.5H27C27.4688 21.5 28 21.2188 28 20.5V5.5C28 5.0312 27.6277 4.5 27 4.5ZM16 6.5C16.4688 6.5 17 6.8236 17 7.5312V13.5C17 14.0624 16.5625 14.5 16 14.5C15.5 14.5 15 14.0312 15 13.5V7.5312C15 6.9688 15.4375 6.5 16 6.5ZM16.05 18.8625C16.8278 18.8625 17.45 18.2471 17.45 17.4779C17.45 16.7087 16.8278 16.0625 16.05 16.0625C15.2722 16.0625 14.65 16.7087 14.65 17.4779C14.65 18.2471 15.2722 18.8625 16.05 18.8625Z" fill="#1A1C1F"/>
</g>
<defs>
<clipPath id="clip0_185_486">
<rect width="32" height="32" fill="white"/>
</clipPath>
</defs>
</svg>

<svg xmlns="http://www.w3.org/2000/svg" width="32" height="32" fill="none"><g clip-path="url(#a)"><path fill="#1A1C1F" fill-rule="evenodd" d="M27 2.5c1.563 0 3 1.156 3 3v15c0 1.563-1.123 3-3 3H9.844c-.281 0-.485.046-.719.281L3.719 29.22A1.04 1.04 0 0 1 3 29.5c-.469 0-1-.374-1-1v-23c0-1.562 1.254-3 3-3zm0 2H5c-.469 0-1 .25-1 1v20.594l3.688-3.719c.606-.612 1.241-.875 2.156-.875H27c.469 0 1-.281 1-1v-15c0-.469-.372-1-1-1m-11 2c.469 0 1 .324 1 1.031V13.5c0 .562-.437 1-1 1-.5 0-1-.469-1-1V7.531c0-.562.438-1.031 1-1.031m.05 12.363c.778 0 1.4-.616 1.4-1.385 0-.77-.622-1.416-1.4-1.416s-1.4.647-1.4 1.416c0 .77.622 1.384 1.4 1.384" clip-rule="evenodd"/></g><defs><clipPath id="a"><path fill="#fff" d="M0 0h32v32H0z"/></clipPath></defs></svg>
